static/assets/img/avatars/bootstrap.svg

<svg fill="none" height="128" viewBox="0 0 128 128" width="128" xmlns="http://www.w3.org/2000/svg"><circle cx="64" cy="64" fill="#7757b1" r="64"/><path d="m65.9633 89c10.6722 0 17.1517-5.4054 17.1517-14.2065 0-6.6182-4.747-11.5038-11.5384-12.1622v-.2772c5.1282-.8316 9.1129-5.5093 9.1129-10.8801 0-7.5883-5.8558-12.474-14.9341-12.474h-20.7554v50zm-12.0236-43.0353h9.5634c5.3361 0 8.3507 2.4601 8.3507 6.826 0 4.6431-3.4997 7.2765-9.7367 7.2765h-8.1774zm0 36.0706v-15.6271h9.5981c6.8607 0 10.4643 2.668 10.4643 7.7616 0 5.1282-3.4997 7.8655-10.0832 7.8655z" fill="#fff"/></svg>

<svg width="128" height="128" viewBox="0 0 128 128" fill="none" xmlns="http://www.w3.org/2000/svg">
<circle cx="64" cy="64" r="64" fill="#7757B1"/>
<path d="M65.9633 89C76.6355 89 83.115 83.5946 83.115 74.7935C83.115 68.1753 78.368 63.2897 71.5766 62.6313V62.3541C76.7048 61.5225 80.6895 56.8448 80.6895 51.474C80.6895 43.8857 74.8337 39 65.7554 39H45V89H65.9633ZM53.9397 45.9647H63.5031C68.8392 45.9647 71.8538 48.4248 71.8538 52.7907C71.8538 57.4338 68.3541 60.0672 62.1171 60.0672H53.9397V45.9647ZM53.9397 82.0353V66.4082H63.5378C70.3985 66.4082 74.0021 69.0762 74.0021 74.1698C74.0021 79.298 70.5024 82.0353 63.9189 82.0353H53.9397Z" fill="white"/>
</svg>
